tools/download-figma-icons/icons/outlined-large/smiley.svg

<svg width="64" height="64" viewBox="0 0 64 64" fill="none" xmlns="http://www.w3.org/2000/svg">
<path d="M32 3C16.01 3 3 16.01 3 32C3 47.99 16.01 61 32 61C47.99 61 61 47.99 61 32C61 16.01 47.99 3 32 3ZM32 58C17.66 58 6 46.34 6 32C6 17.66 17.66 6 32 6C46.34 6 58 17.66 58 32C58 46.34 46.34 58 32 58Z" fill="black"/>
<path d="M44.1099 38.1299C43.3499 37.7899 42.4699 38.1299 42.1299 38.8899C42.0999 38.9499 39.3099 44.9999 32.0499 44.9999C24.7899 44.9999 21.9999 39.1499 21.8599 38.8699C21.5099 38.1199 20.6199 37.7899 19.8699 38.1399C19.1199 38.4899 18.7899 39.3799 19.1399 40.1299C19.2899 40.4499 22.8799 47.9999 32.0499 47.9999C41.2199 47.9999 44.7299 40.4399 44.8699 40.1099C45.2099 39.3499 44.8699 38.4699 44.1099 38.1299Z" fill="black"/>
<path d="M25.4401 27.5601C25.7301 27.8501 26.1201 28.0001 26.5001 28.0001C26.8801 28.0001 27.2701 27.8501 27.5601 27.5601C28.1501 26.9701 28.1501 26.0201 27.5601 25.4401L22.5601 20.4401C21.9701 19.8501 21.0201 19.8501 20.4401 20.4401L15.4401 25.4401C14.8501 26.0301 14.8501 26.9801 15.4401 27.5601C16.0301 28.1401 16.9801 28.1501 17.5601 27.5601L21.5001 23.6201L25.4401 27.5601Z" fill="black"/>
<path d="M44.5601 20.4401C43.9701 19.8501 43.0201 19.8501 42.4401 20.4401L37.4401 25.4401C36.8501 26.0301 36.8501 26.9801 37.4401 27.5601C38.0301 28.1401 38.9801 28.1501 39.5601 27.5601L43.5001 23.6201L47.4401 27.5601C47.7301 27.8501 48.1201 28.0001 48.5001 28.0001C48.8801 28.0001 49.2701 27.8501 49.5601 27.5601C50.1501 26.9701 50.1501 26.0201 49.5601 25.4401L44.5601 20.4401Z" fill="black"/>
</svg>

<svg width="64" height="64" viewBox="0 0 64 64" fill="none" xmlns="http://www.w3.org/2000/svg"><path d="M32 3C16.01 3 3 16.01 3 32s13.01 29 29 29 29-13.01 29-29S47.99 3 32 3Zm0 55C17.66 58 6 46.34 6 32S17.66 6 32 6s26 11.66 26 26-11.66 26-26 26Z" fill="currentColor"/><path d="M44.11 38.13c-.76-.34-1.64 0-1.98.76-.03.06-2.82 6.11-10.08 6.11S22 39.15 21.86 38.87a1.499 1.499 0 0 0-2.72 1.26c.15.32 3.74 7.87 12.91 7.87s12.68-7.56 12.82-7.89c.34-.76 0-1.64-.76-1.98ZM25.44 27.56c.29.29.68.44 1.06.44s.77-.15 1.06-.44c.59-.59.59-1.54 0-2.12l-5-5a1.49 1.49 0 0 0-2.12 0l-5 5a1.49 1.49 0 0 0 0 2.12c.59.58 1.54.59 2.12 0l3.94-3.94 3.94 3.94Zm19.12-7.12a1.49 1.49 0 0 0-2.12 0l-5 5a1.49 1.49 0 0 0 0 2.12c.59.58 1.54.59 2.12 0l3.94-3.94 3.94 3.94c.29.29.68.44 1.06.44s.77-.15 1.06-.44c.59-.59.59-1.54 0-2.12l-5-5Z" fill="currentColor"/></svg>
